dataset/electrum/icon.svg

<?xml version="1.0" encoding="UTF-8" standalone="no"?>
<svg
   height="128px"
   viewBox="0 0 128 128"
   width="128px"
   version="1.1"
   id="svg15"
   xmlns:xlink="http://www.w3.org/1999/xlink"
   xmlns="http://www.w3.org/2000/svg"
   xmlns:svg="http://www.w3.org/2000/svg">
  <defs
     id="defs15">
    <linearGradient
       id="linearGradient12">
      <stop
         style="stop-color:#011e2d;stop-opacity:1;"
         offset="0"
         id="stop7" />
      <stop
         style="stop-color:#06a0f4;stop-opacity:1;"
         offset="0.41326144"
         id="stop8" />
      <stop
         style="stop-color:#011e2d;stop-opacity:1;"
         offset="0.8102864"
         id="stop9" />
      <stop
         style="stop-color:#0690db;stop-opacity:1;"
         offset="1"
         id="stop11" />
    </linearGradient>
    <linearGradient
       id="linearGradient3987">
      <stop
         style="stop-color:#41b3ec;stop-opacity:1;"
         offset="0"
         id="stop4032" />
      <stop
         style="stop-color:#0581c4;stop-opacity:1;"
         offset="1"
         id="stop3991" />
    </linearGradient>
    <linearGradient
       xlink:href="#linearGradient3987"
       id="linearGradient4012"
       gradientUnits="userSpaceOnUse"
       x1="501.60345"
       y1="3335.3418"
       x2="-2209.7732"
       y2="-440.35352"
       gradientTransform="matrix(0.0076337,0,0,0.00738246,71.486637,50.759286)" />
    <radialGradient
       xlink:href="#linearGradient3987"
       id="radialGradient3800"
       cx="505.65533"
       cy="726.3916"
       fx="505.65533"
       fy="726.3916"
       r="146.04732"
       gradientTransform="matrix(-0.08141209,-0.17361338,0.18823518,-0.08594763,-12.591124,220.85018)"
       gradientUnits="userSpaceOnUse" />
    <radialGradient
       xlink:href="#linearGradient3987"
       id="radialGradient3796"
       cx="529.57996"
       cy="728.15845"
       fx="529.57996"
       fy="728.15845"
       r="146.04732"
       gradientTransform="matrix(0.10862857,0.05571778,-0.0736279,0.13836917,41.346449,-59.631649)"
       gradientUnits="userSpaceOnUse" />
    <radialGradient
       xlink:href="#linearGradient3987"
       id="radialGradient3786"
       cx="523.18433"
       cy="732.08508"
       fx="523.18433"
       fy="732.08508"
       r="146.04732"
       gradientTransform="matrix(-0.1056241,0.10063958,-0.09285077,-0.09422828,186.99779,58.738098)"
       gradientUnits="userSpaceOnUse" />
    <linearGradient
       xlink:href="#linearGradient12"
       id="linearGradient874"
       x1="9.9827738"
       y1="65.982773"
       x2="118.01723"
       y2="65.982773"
       gradientUnits="userSpaceOnUse"
       gradientTransform="matrix(1.1107567,0,0,1.0922442,-7.0884286,-6.069299)" />
  </defs>
  <linearGradient
     id="a"
     gradientTransform="matrix(0.232143 0 0 0.328947 -8.483806 264.021448)"
     gradientUnits="userSpaceOnUse"
     x1="88.595886"
     x2="536.595886"
     y1="-449.394012"
     y2="-449.394012">
    <stop
       offset="0"
       stop-color="#1a5eb2"
       id="stop1" />
    <stop
       offset="0.0384615"
       stop-color="#98c0f1"
       id="stop2" />
    <stop
       offset="0.0768555"
       stop-color="#1c71d9"
       id="stop3" />
    <stop
       offset="0.923077"
       stop-color="#1c71d9"
       id="stop4" />
    <stop
       offset="0.961538"
       stop-color="#98c0f1"
       id="stop5" />
    <stop
       offset="1"
       stop-color="#1a5fb2"
       id="stop6" />
  </linearGradient>
  <path
     fill-rule="evenodd"
     clip-rule="evenodd"
     d="M 64,125 C 97.1368,125 124,98.584519 124,65.999999 124,33.415187 97.1368,7.000002 64,7.000002 30.862907,7.000002 4,33.415187 4,65.999999 4,98.584519 30.862907,125 64,125 Z"
     fill="#0dbd8b"
     id="path2-6"
     style="fill:url(#linearGradient874);fill-opacity:1;stroke-width:0.594978" />
  <path
     fill-rule="evenodd"
     clip-rule="evenodd"
     d="M 63.999994,121 C 97.136791,121 124,94.584522 124,62.000002 124,29.415187 97.136791,3.0000013 63.999994,3.0000013 30.862898,3.0000013 4,29.415187 4,62.000002 4,94.584522 30.862898,121 63.999994,121 Z"
     fill="#0dbd8b"
     id="path2"
     style="fill:#222222;fill-opacity:1;stroke-width:0.594979" />
  <path
     style="color:#000000;fill:url(#radialGradient3786);stroke-width:0.870509;-inkscape-stroke:none"
     d="m 64,39.56815 c -12.276293,0 -23.405405,2.292265 -31.659358,6.140356 -8.253962,3.848091 -13.989102,9.454872 -13.989102,16.291669 0,6.836797 5.73514,12.443577 13.989102,16.291668 8.253953,3.848092 19.383065,6.140356 31.659358,6.140356 12.276293,0 23.403693,-2.292264 31.657646,-6.140356 8.253964,-3.848091 13.990814,-9.454871 13.990814,-16.291668 0,-6.836797 -5.73685,-12.443578 -13.990814,-16.291669 C 87.403693,41.860415 76.276293,39.56815 64,39.56815 Z m 0,4.373443 c 11.706521,0 22.290073,2.239661 29.752772,5.71886 7.462708,3.4792 11.448128,7.99545 11.448128,12.339722 0,4.344271 -3.98542,8.86052 -11.448128,12.33972 -7.462699,3.4792 -18.046251,5.71886 -29.752772,5.71886 -11.706513,0 -22.291776,-2.23966 -29.754482,-5.71886 -7.462699,-3.4792 -11.446405,-7.995449 -11.446405,-12.33972 0,-4.344272 3.983706,-8.860522 11.446405,-12.339722 C 41.708224,46.181254 52.293487,43.941593 64,43.941593 Z"
     id="path3803" />
  <path
     style="color:#000000;fill:url(#radialGradient3796);stroke-width:0.870506;-inkscape-stroke:none"
     d="m 44.173985,73.212385 c 6.139359,10.41708 13.731739,18.714799 21.26249,23.794598 7.530758,5.079797 15.355759,7.139177 21.390397,3.726057 6.034637,-3.413137 8.126565,-11.081441 7.401241,-20.010321 C 93.50278,71.793842 89.963517,61.203721 83.824159,50.786641 77.684799,40.369559 70.093277,32.073297 62.562526,26.993497 55.031768,21.913703 47.206774,19.854312 41.172129,23.267439 35.1375,26.680575 33.045563,34.348882 33.770888,43.277762 c 0.725333,8.928877 4.263738,19.517542 10.403097,29.934623 z m 3.855328,-2.180536 C 42.177265,61.102271 38.866558,51.00554 38.211122,42.936996 37.55568,34.868446 39.552423,29.228777 43.40221,27.051375 c 3.849789,-2.177403 9.833812,-1.051575 16.638952,3.538767 6.805136,4.590335 14.075621,12.447455 19.927668,22.377033 5.852042,9.92957 9.163613,20.027767 9.819051,28.096309 0.655441,8.068551 -1.341302,13.708224 -5.19109,15.88562 C 80.747002,99.12651 74.762979,98.000684 67.95784,93.410343 61.152703,88.820005 53.881355,80.96142 48.029313,71.031849 Z"
     id="path4023" />
  <path
     style="color:#000000;fill:url(#radialGradient3800);stroke-width:0.870506;-inkscape-stroke:none"
     d="M 83.823522,73.213148 C 89.962884,62.796062 93.502146,52.205942 94.227478,43.277068 94.952802,34.348189 92.860877,26.679877 86.826237,23.266744 80.791594,19.853611 72.96808,21.913847 65.437324,26.993641 c -7.53075,5.079798 -15.123129,13.377516 -21.26249,23.794602 -6.139362,10.417086 -9.677763,21.005746 -10.403096,29.934622 -0.725324,8.92888 1.365119,16.596347 7.399759,20.009485 6.034642,3.41312 13.859638,1.35373 21.390395,-3.726057 7.53075,-5.079802 15.12227,-13.376058 21.26163,-23.793145 z M 79.968195,71.032613 C 74.11615,80.962189 66.847148,88.820149 60.042011,93.41049 53.236873,98.000822 47.251365,99.125819 43.401578,96.948414 39.55179,94.771009 37.555047,89.13134 38.210485,81.062794 c 0.65544,-8.068547 3.966148,-18.16528 9.818193,-28.094855 5.852044,-9.929576 13.123389,-17.788156 19.928527,-22.378496 6.805139,-4.590337 12.789161,-5.716165 16.63895,-3.538763 3.849788,2.177402 5.848015,7.817912 5.192575,15.886458 -0.655439,8.068547 -3.96849,18.165899 -9.820535,28.095475 z"
     id="path21" />
  <path
     id="path20"
     style="color:#000000;fill:url(#linearGradient4012);stroke-width:0.870509;-inkscape-stroke:none"
     d="m 59.929633,47.509137 v 4.208218 c -0.541786,0.0107 -1.074451,0.02142 -1.594536,0.02192 v -0.0118 l -3.710317,-0.0017 v 2.81728 h 0.04284 c 0,0 0.485533,-0.0088 0.96702,-0.01349 0.240733,-0.0023 0.479537,-0.0032 0.65667,-0.0017 0.08568,7.35e-4 0.155143,0.0012 0.204031,0.0034 l -0.01022,0.01016 h 0.09258 c 0.524817,3.54e-4 0.865934,0.149133 1.090462,0.357429 0.223511,0.207344 0.331356,0.476471 0.380639,0.730032 l 0.0018,4.793254 v 6.732135 c -0.02274,0.158466 -0.08173,0.362969 -0.222895,0.526028 -0.141133,0.16306 -0.362502,0.287836 -0.725258,0.288304 h -0.109732 l 0.01022,0.0084 c -0.04828,0.0015 -0.108276,0.0027 -0.186885,0.0034 -0.177406,0.0013 -0.417149,2.1e-4 -0.658392,-0.0017 -0.482487,-0.0037 -0.968731,-0.01016 -0.968731,-0.01016 l -0.03599,-0.0017 -0.534947,3.140988 h 3.471987 c 0.623522,7.03e-4 1.235905,0.01027 1.838008,0.01517 l 0.0036,4.258796 h 2.708999 l -0.0018,-4.213275 c 0.694059,0.01351 1.365591,0.02081 2.021472,0.02023 V 75.3818 h 2.712432 l 0.0018,-4.255425 c 2.195462,-0.125788 4.069683,-0.457579 5.445448,-1.266174 1.384702,-0.813854 2.263593,-2.111372 2.456967,-4.144151 0.155767,-1.635689 -0.162465,-2.825242 -0.838422,-3.678818 -0.663334,-0.837633 -1.673894,-1.34139 -2.902751,-1.638777 1.494487,-0.768903 2.442738,-2.102136 2.222072,-4.300946 -0.151193,-1.528722 -0.907404,-2.556746 -2.050617,-3.232033 -1.134251,-0.669989 -2.649507,-0.994509 -4.33441,-1.141412 v -4.214961 h -2.712431 l -0.0018,4.098629 c -0.666098,4.94e-4 -1.34296,0.01381 -2.018039,0.02698 v -4.125604 z m 4.349841,7.195782 c 0.6349,0.0039 1.341556,0.03965 2.006039,0.168599 0.672112,0.130429 1.296021,0.355078 1.748855,0.730031 0.452823,0.374953 0.738811,0.898982 0.738969,1.643835 -1.58e-4,0.713247 -0.286093,1.220775 -0.738969,1.589884 -0.452886,0.369106 -1.076681,0.597198 -1.748855,0.735089 -1.329089,0.272653 -2.826825,0.192341 -3.581718,0.190516 v -5.032664 c 0.377636,-0.0012 0.940779,-0.0292 1.575679,-0.0253 z m 0.317196,7.698206 c 0.763918,0.005 1.614998,0.04584 2.414101,0.18883 0.80674,0.144355 1.556209,0.392061 2.100339,0.805901 0.54412,0.413839 0.886247,0.990283 0.886422,1.809061 1.85e-4,0.784275 -0.342162,1.343943 -0.886422,1.751738 -0.544262,0.407794 -1.293292,0.659587 -2.100339,0.812645 -1.598829,0.303221 -3.404734,0.216821 -4.308688,0.215806 l 0.0018,-5.557006 c 0.452182,-0.0012 1.128957,-0.03201 1.892874,-0.02698 z" />
</svg>

<svg xmlns="http://www.w3.org/2000/svg" xmlns:xlink="http://www.w3.org/1999/xlink" width="128" height="128" viewBox="0 0 128 128"><defs><linearGradient id="b"><stop offset="0" style="stop-color:#011e2d;stop-opacity:1"/><stop offset=".413" style="stop-color:#06a0f4;stop-opacity:1"/><stop offset=".81" style="stop-color:#011e2d;stop-opacity:1"/><stop offset="1" style="stop-color:#0690db;stop-opacity:1"/></linearGradient><linearGradient id="a"><stop offset="0" style="stop-color:#41b3ec;stop-opacity:1"/><stop offset="1" style="stop-color:#0581c4;stop-opacity:1"/></linearGradient><linearGradient xlink:href="#a" id="g" x1="501.603" x2="-2209.773" y1="3335.342" y2="-440.354" gradientTransform="matrix(.00763 0 0 .00738 71.487 50.76)" gradientUnits="userSpaceOnUse"/><linearGradient xlink:href="#b" id="c" x1="9.983" x2="118.017" y1="65.983" y2="65.983" gradientTransform="matrix(1.11076 0 0 1.09224 -7.088 -6.07)" gradientUnits="userSpaceOnUse"/><radialGradient xlink:href="#a" id="f" cx="505.655" cy="726.392" r="146.047" fx="505.655" fy="726.392" gradientTransform="matrix(-.08141 -.17361 .18824 -.08595 -12.591 220.85)" gradientUnits="userSpaceOnUse"/><radialGradient xlink:href="#a" id="e" cx="529.58" cy="728.158" r="146.047" fx="529.58" fy="728.158" gradientTransform="matrix(.10863 .05572 -.07363 .13837 41.346 -59.632)" gradientUnits="userSpaceOnUse"/><radialGradient xlink:href="#a" id="d" cx="523.184" cy="732.085" r="146.047" fx="523.184" fy="732.085" gradientTransform="matrix(-.10562 .10064 -.09285 -.09423 186.998 58.738)" gradientUnits="userSpaceOnUse"/></defs><path fill="#0dbd8b" fill-rule="evenodd" d="M64 125c33.137 0 60-26.415 60-59S97.137 7 64 7 4 33.415 4 66s26.863 59 60 59" clip-rule="evenodd" style="fill:url(#c);fill-opacity:1;stroke-width:.594978"/><path fill="#0dbd8b" fill-rule="evenodd" d="M64 121c33.137 0 60-26.415 60-59S97.137 3 64 3 4 29.415 4 62s26.863 59 60 59" clip-rule="evenodd" style="fill:#222;fill-opacity:1;stroke-width:.594979"/><path d="M64 39.568c-12.276 0-23.405 2.292-31.66 6.14C24.088 49.558 18.353 55.164 18.353 62s5.735 12.444 13.989 16.292 19.383 6.14 31.659 6.14 23.404-2.292 31.658-6.14 13.99-9.455 13.99-16.292-5.736-12.443-13.99-16.291-19.382-6.14-31.658-6.14m0 4.374c11.707 0 22.29 2.24 29.753 5.718C101.215 53.14 105.2 57.656 105.2 62s-3.986 8.86-11.448 12.34C86.29 77.82 75.707 80.059 64 80.059s-22.292-2.24-29.754-5.72C26.783 70.862 22.799 66.345 22.799 62s3.984-8.86 11.447-12.34c7.462-3.479 18.047-5.718 29.754-5.718" style="color:#000;fill:url(#d);stroke-width:.870509;-inkscape-stroke:none"/><path d="M44.174 73.212c6.14 10.417 13.732 18.715 21.262 23.795s15.356 7.14 21.39 3.726c6.036-3.413 8.127-11.081 7.402-20.01s-4.264-19.52-10.404-29.936-13.73-18.714-21.261-23.794-15.356-7.139-21.39-3.726-8.127 11.082-7.402 20.01c.725 8.93 4.264 19.518 10.403 29.935m3.855-2.18c-5.852-9.93-9.162-20.026-9.818-28.095s1.341-13.708 5.191-15.886 9.834-1.051 16.64 3.54c6.804 4.59 14.075 12.447 19.927 22.376s9.163 20.028 9.819 28.096c.655 8.069-1.341 13.709-5.191 15.886-3.85 2.178-9.834 1.052-16.64-3.539-6.804-4.59-14.076-12.449-19.928-22.378" style="color:#000;fill:url(#e);stroke-width:.870506;-inkscape-stroke:none"/><path d="M83.824 73.213c6.139-10.417 9.678-21.007 10.403-29.936.726-8.929-1.366-16.597-7.4-20.01s-13.859-1.353-21.39 3.727c-7.53 5.08-15.123 13.377-21.262 23.794s-9.678 21.006-10.403 29.935c-.726 8.929 1.365 16.596 7.4 20.01 6.034 3.412 13.86 1.353 21.39-3.727S77.684 83.63 83.824 73.213m-3.856-2.18c-5.852 9.93-13.12 17.787-19.926 22.377s-12.79 5.716-16.64 3.538c-3.85-2.177-5.847-7.817-5.192-15.885.656-8.069 3.967-18.165 9.819-28.095S61.152 35.18 67.957 30.589c6.805-4.59 12.79-5.716 16.64-3.538 3.849 2.177 5.847 7.818 5.192 15.886-.656 8.069-3.969 18.166-9.82 28.096" style="color:#000;fill:url(#f);stroke-width:.870506;-inkscape-stroke:none"/><path d="M59.93 47.51v4.207c-.542.011-1.075.022-1.595.022v-.012l-3.71-.001v2.817h.043s.485-.009.967-.013c.24-.003.48-.004.656-.002q.13 0 .204.003l-.01.01h.093c.525 0 .866.15 1.09.358.224.207.332.476.38.73l.003 4.793v6.732a1.03 1.03 0 0 1-.223.526c-.141.163-.363.288-.726.289h-.11l.01.008-.186.003a47 47 0 0 1-.658-.001l-.97-.01-.035-.002-.535 3.14h3.472c.624.002 1.236.011 1.838.016l.004 4.259h2.709l-.002-4.213q1.039.02 2.021.02v4.193h2.713l.001-4.256c2.196-.125 4.07-.457 5.446-1.266 1.385-.814 2.264-2.111 2.457-4.144.156-1.636-.163-2.825-.839-3.679-.663-.837-1.673-1.341-2.902-1.639 1.494-.768 2.442-2.102 2.222-4.3-.151-1.53-.908-2.557-2.05-3.233-1.135-.67-2.65-.994-4.335-1.14v-4.216H64.66l-.001 4.099c-.667 0-1.343.014-2.018.027v-4.126zm4.35 7.195c.634.004 1.341.04 2.006.169.672.13 1.296.355 1.748.73.453.375.74.899.74 1.643 0 .714-.287 1.221-.74 1.59-.453.37-1.076.597-1.748.735-1.33.273-2.827.193-3.582.19V54.73c.377-.001.94-.029 1.575-.025m.317 7.698c.764.005 1.615.046 2.414.189.807.144 1.556.392 2.1.806s.886.99.887 1.809c0 .784-.343 1.344-.887 1.752s-1.293.66-2.1.812c-1.6.304-3.405.217-4.309.216l.002-5.557c.452-.001 1.129-.032 1.893-.027" style="color:#000;fill:url(#g);stroke-width:.870509;-inkscape-stroke:none"/></svg>
